localPackages/DesignSystem/Sources/DesignSystem/Resources/Assets.xcassets/IconSet/ic-speech-bubble.imageset/ic-speech-bubble.svg

<svg width="24" height="24" viewBox="0 0 24 24" fill="none" xmlns="http://www.w3.org/2000/svg">
<g id="ic-speech-bubble">
<path id="Icon" fill-rule="evenodd" clip-rule="evenodd" d="M13.6289 16.4934H19.5C20.3291 16.4934 21 15.8218 21 14.9947V5.99868C21 5.1716 20.3291 4.5 19.5 4.5H4.5C3.67095 4.5 3 5.1716 3 5.99868V14.9947C3 15.8218 3.67095 16.4934 4.5 16.4934H10.5V19.6209L13.6289 16.4934ZM9.89623 22.3452C9.5655 22.6758 9 22.4417 9 21.9742V17.9934H4.5C2.84315 17.9934 1.5 16.6508 1.5 14.9947V5.99868C1.5 4.34255 2.84315 3 4.5 3H19.5C21.1569 3 22.5 4.34255 22.5 5.99868V14.9947C22.5 16.6508 21.1569 17.9934 19.5 17.9934H14.25L9.89623 22.3452Z" fill="#0F0F0F"/>
</g>
</svg>

<svg xmlns="http://www.w3.org/2000/svg" width="24" height="24" viewBox="0 0 24 24">
  <g class="ic-speech-bubble">
    <path fill-rule="evenodd" d="M13.629 16.493H19.5a1.5 1.5 0 0 0 1.5-1.498V5.999A1.5 1.5 0 0 0 19.5 4.5h-15A1.5 1.5 0 0 0 3 5.999v8.996a1.5 1.5 0 0 0 1.5 1.498h6v3.128l3.129-3.128Zm-3.733 5.852a.525.525 0 0 1-.896-.37v-3.982H4.5a3 3 0 0 1-3-2.998V5.999A3 3 0 0 1 4.5 3h15a3 3 0 0 1 3 2.999v8.996a3 3 0 0 1-3 2.998h-5.25l-4.354 4.352Z" class="Icon"/>
  </g>
</svg>
